X:151
T: Dui Hua
N: C0252
O: China, Guangdong, Zhongshan
S: II, 414]
N: +++ auch Nr. 51 absuchen +++
N: Diese Sammlung enthaelt mit Stand 1987 wenigstens 32 Aufnahmen
N: mit dem Titel "Dui hua"
N: C0046, C0495, C0136
N: Vereinzelt Glissandi und Verzierungen.
R: Xiaodiao, Xianshuige. Chang huahui]
M: 2/4
L: 1/16
K: Bb
f4c2dfdcd2 | c2b2c4 | c2dfdcag |
f2c2f2dfdcd2 | b2c2f2f2 | b6gfd2z2
f4c2dfdcd2 | c4c2dfdcag
f4bcd2 | b4c2b2a2g2 | f2fdf4 | d2z6 |
f4c2dfdcd2 | f2b2c4 | c2dfdcag |
f2c2f2dfdcd2 | b2c2f2f2 | b6gfd2z2 | z8 |
f4c2dfdcd2 | c4c2dfdcag
f4bcd2 | b4c2b2a2g2 | f2fdf4 | d2z6

